X:1
T:The Light of My Heavenly Home
T:E. L. Ozendorff
T:The Light of My Heavenly Home
T:Public Domain
T:Public Domain
T:Public Domain
C:E. L. Ozendorff
Z:Public Domain
%%score ( 1 2 ) 3
L:1/8
M:4/4
K:Eb
V:1 treble 
V:2 treble 
V:3 bass 
V:1
"^Duet with feeling" B, | G2 G>G AG z E | G^F G>D E2 G2 | B2 B>B cB z G | EE D>E F2 z B, | %5
w: 1.~The|sun- light is fad- ing, the|night is draw- ing nigh, And|swift- ly the dark- ness falls|o- ver earth and sky; But|
w: 2.~The|cold winds are sweep- ing o-|ver yon rug- ged height, But|fac- ing it on- ward the|drear- y way I fight; The|
w: 3.~This|path which is nar- row, I|tra- vel all a- lone, For|friends once were with me long|wea- ry since have grown; I’m|
w: 4.~The|sha- dows are clear- ing, earth’s|scenes be- fore me flee, The|morn- ing of glo- ry is|break- ing now to me; The|
 G2 G>G AG z F | EE F>G A2"^Quartet" [EA][EA] | [EG]2 [EG]>E [DF][DF] [DF]2 | E6 || %9
w: light still is near me, tho’|thick the sha- dows come, ’Tis the|light of my heav- en- ly||
w: prize is be- fore me, I’ll|reach it, and so soon, ’Tis the|light of my heav- en- ly|’Tis|
w: near- ing the Sav- ior, He’s|call- ing for His own, To the|light of my heav- en- ly||
w: Sav- ior doth wel- come and|bid- deth me to “come.” He’s the|light of my heav- en- ly||
"^Refrain" [EG]>[FA] | [GB]6 [Ac][GB] | [EG][EG] [DF]2 E2 [B,D]>[CE] | [DF]6 E[EF] | %13
w: ||||
w: light of|my heav- en-|ly home, ’Tis the light of|heav- en- ly|
w: ||||
w: ||||
 [EG][EB] [EB]2 [EB]2 [EG]>[EA] | [EB]2 [EB][EB] [EB]2 [EG][EF] | E2 [CE][CE] [CE]2 [EA][EA] | %16
w: |||
w: Tho’ the sha- dows may fall|and the dark- ness may come,|I’ve the light of my heav-|
w: |||
w: |||
 [EG]2 [EG]>E [DF][DF] [DF]2 | E6 |] %18
w: ||
w: ly home. * * * *||
w: ||
w: ||
V:2
 x | x8 | x8 | x8 | x8 | x8 | x8 | x7/2 E/ x4 | E6 || x2 | x8 | x4 E2 x2 | x6 E x | x8 | x8 | %15
w: |||||||home.||||||||
w: |||||||home.|the|||my|home,|||
w: |||||||home.||||||||
w: |||||||home.||||||||
 E2 x6 | x7/2 E/ x4 | E6 |] %18
w: |||
w: en-|||
w: |||
w: |||
V:3
 B, | E2 D>B, CB, z G, | B,=A, B,>A, G,2 B,2 | G,2 G,>G, A,G, z B, | G,G, F,>G, A,2 z B, | %5
w: ~|~ ~ ~ ~ ~ ~|~ ~ ~ ~ ~ ~|~ ~ ~ ~ ~ ~|~ ~ ~ ~ ~ ~|
 E2 D>B, CB, z A, | G,E D>_D C2 [A,,C][A,,C] | [B,,B,]2 [B,,B,]>[B,,G,] [B,,A,][B,,A,] [B,,A,]2 | %8
w: ~ ~ ~ ~ ~ ~|~ ~ ~ ~ ~ ~ ~|~ ~ ~ ~ ~ ~|
 [E,G,]6 || [E,B,]>[E,B,] | [E,B,]2 [E,B,]>[E,B,] [E,B,]2 [E,B,][E,B,] | %11
w: ~|’Tis the|light, bless- èd light, ~ ~|
 [B,,B,][B,,B,] [B,,A,]2 [E,G,]2 [B,,B,]>[B,,B,] | [B,,B,]2 [B,,B,]>[B,,B,] [B,,B,]2 [E,G,][E,A,] | %13
w: ~ ~ ~ ~ ’Tis the|light, bless- èd light, * *|
 [E,B,][E,G,] [E,G,]2 [E,G,]2 [E,B,]>[E,B,] | [E,G,]2 [E,G,][E,G,] [E,G,]2 [E,B,][E,=B,] | %15
w: ||
 [A,,C]2 [A,,A,][A,,A,] [A,,A,]2 [A,,C][A,,C] | [B,,B,]2 [B,,B,]>[B,,G,] [B,,A,][B,,A,] [B,,A,]2 | %17
w: ||
 [E,G,]6 |] %18
w: |

